X:10
T:The lad's gane
Z:Jack Campin - http://www.campin.me.uk
S:Blaikie MS (NLS MS.1578) p4, Blaikie #9
M:2/4
L:1/8
V:1 midi program 1 74
V:2 midi program 1 46 bass middle = d transpose -24 down
Q:1/4=100
N:variant repeat is indicated by simply attaching two tails to the same note
K:G
[V:1]      de/f/    gd   |BB`AD   |de/f/ gd   |de/f/ gd   |
[V:2]      G2       g2   |g2 f2   |g2    b2   |c'2   b2   |
%
[V:1]      de/f/    gd   |BB AD/d/|e/f/g dB   |dB [1 G2  :|[2 G ||
[V:2]      c'2      b2   |g2 d2   |c2    BG   |g2 [1 G2  :|[2 G ||
%
[V:1] e/f/|gf/e/    dc/B/|BA De/f/|gf/e/ dc/B/|gf/e/ dc/B/|
[V:2] z   |G2       gG   |D2 dz   |bg````bg   |bg````bg   |
%
[V:1]      gf/e/    dc/B/|BA Dd   |e/f/g dB   |dB [1 G   :|[2 G2|]
[V:2]      e'd'/c'/ ba/g/|d2 d2   |c2    BG   |G2 [1 g   :|[2 g2|]
W:Transcription (c) Jack Campin 2009, no mirroring or republication without permission

